X:931
T:Gooseberry Bush
O:ireland
Z: id:dc-reel-117
M:C
L:1/8
K:D Mixolydian
A,|DEFD EFGB|AGAB c2AG|ABcA dcAG|FDEF GBAF|!
DEFD EFGB|ABcA d^cde|f2ef dfed|cAGE D3:|!
A|Add2 fded|cded cAGc|ABcA GEED|EGAB c2AG|!
Add2 fded|cded cAGc|ABcA dcAG|ABcA d3:|!
B|Add2 fdd2|efge aged|^cdef g2ef|g3e d^cAB|!
d2AB GBAG|FGAB c2AG|ABcA dcAG|ABcA d3:|!
